!!!ONB: MCCC : ILB0180_01 : Extracted Monophonic Melody
!!!COM: Beethoven, Ludwig van
!!!OPR: Piano Sonata No.19
!!!OMV: 1
!!!SCT: Op.49 No.1
!!!ODT: 1797///
**kern
*thru
*staff1
*>A
*clefG2
*k[b-e-]
*g:
*M2/4
*MM84
8d
=1
8b-
8g
8f#
8g
=2
2cc
=3
8b-
8g
8f#
8g
=4
2ee-
=5
8dd
8ff#
8gg
8dd
=6
8cc
8gg#
8aa
8cc
=7
8b-
8gg
8a
8ee-
=8
8.g
32a
32g
8f#
8d
=9
8b-
8g
8f#
8g
=10
2cc
=11
8b-
8g
8f#
8g
=12
4.ee-
8ee-[
=13
16ee-]
16dd
16ff
16ee
16gg
16ff
16ee-
16dd
=14
8dd
8cc
8cc
8b-
=15
16b-
16a
16g
16f
16e
16f
16g
16f
=16
8ee-
8a
8a
8a
=17
8.b-
16dd
8ff
8ff
=18
8eee-
8aa
8aa
8aa
=19
8.bb-
16ddd
8fff
8f
=20
8ee-
8a
8a
8a
=21
8.b-
16cc
16dd
16b-
16cc
16dd
=22
8.ee-
16ff
16gg
16aa
16bb-
16gg
=23
16ee
16ff
16gg
16ff
16ff
16ee-
16dd
16cc
=24
16cc#
16dd
16ee-
16dd
16ff
16ee-
16dd
16cc
=25
8.b-
16cc
16dd
16b-
16cc
16dd
=26
16ee-
16ff
16gg
16aa
16ccc
16bb-
16aa
16gg
=27
16gg
16ff
16ee
16ff
16aa
16gg
16ff
16ee-
=28
16ee-
16dd
16cc#
16dd
16ff
16ee-
16dd
16cc
=29
4b-
8r
16cc
16dd
=30
8ee-
8a
8a
8a
=31
4b-
8r
16cc
16dd
=32
8ee-
8a
8a
8a
=33
4cc
8b-
*>A
*M2/4
8d
=34
8b-
8g
8f#
8g
=35
2cc
=36
8b-
8g
8f#
8g
=37
2ee-
=38
8dd
8ff#
8gg
8dd
=39
8cc
8gg#
8aa
8cc
=40
8b-
8gg
8a
8ee-
=41
8.g
32a
32g
8f#
8d
=42
8b-
8g
8f#
8g
=43
2cc
=44
8b-
8g
8f#
8g
=45
4.ee-
8ee-[
=46
16ee-]
16dd
16ff
16ee
16gg
16ff
16ee-
16dd
=47
8dd
8cc
8cc
8b-
=48
16b-
16a
16g
16f
16e
16f
16g
16f
=49
8ee-
8a
8a
8a
=50
8.b-
16dd
8ff
8ff
=51
8eee-
8aa
8aa
8aa
=52
8.bb-
16ddd
8fff
8f
=53
8ee-
8a
8a
8a
=54
8.b-
16cc
16dd
16b-
16cc
16dd
=55
8.ee-
16ff
16gg
16aa
16bb-
16gg
=56
16ee
16ff
16gg
16ff
16ff
16ee-
16dd
16cc
=57
16cc#
16dd
16ee-
16dd
16ff
16ee-
16dd
16cc
=58
8.b-
16cc
16dd
16b-
16cc
16dd
=59
16ee-
16ff
16gg
16aa
16ccc
16bb-
16aa
16gg
=60
16gg
16ff
16ee
16ff
16aa
16gg
16ff
16ee-
=61
16ee-
16dd
16cc#
16dd
16ff
16ee-
16dd
16cc
=62
4b-
8r
16cc
16dd
=63
8ee-
8a
8a
8a
=64
4b-
8r
16cc
16dd
=65
8ee-
8a
8a
8a
=66
4cc
8b-
*>B
8B-
=67
8f
8B-
8B-
8B-
=68
8f
8A-
8A-
8A-
=69
8G
8B-
8e-
8g
=70
8f
8a-
8d
8B-
=71
8e-
8r
16r
16gg
16ff
16ee-
=72
8dd
8r
16r
16aa-
16gg
16ff
=73
8ee-
16r
16eee-
16ddd
16eee-
16ddd
16ccc
=74
16bb
16ccc
16bb-
16aa-
16gg
16ff
16ccc
16bb-
=75
8aa-
8gg
16r
32gg
32ff
32aa-
32gg
32ff
32ee-
=76
16ee-
16dd
8dd
16r
32aa-
32gg
32bb-
32aa-
32gg
32ff
=77
16ff
16ee-
8ee-
16r
32eee-
32ddd
32fff
32eee-
32ddd
32ccc
=78
16bb
16ccc
16bb-
16aa-
16gg
16ff
16aa-
16dd
=79
4ee-
8r
16ff
16gg
=80
8aa-
8dd
8dd
8dd
=81
4ee-
8r
16dd
16ee-
=82
8ff
8b
8b
8b
=83
4cc
8r
16aa
16bb-
=84
8ccc
8ff#
8ff#
8ff#
=85
4gg
4aa
=86
8ccc
8bb-
8aa
8gg
=87
8ff#
8r
16r
16dd
16cc#
16dd
=88
8gg
8r
16r
16dd
16cc#
16dd
=89
8a
8r
16r
16dd
16cc#
16dd
=90
8gg
8r
16r
16dd
16cc#
16dd
=91
4a
4b
=92
4.cc
8b-
=93
8a
8aa
8b
8bb
=94
8cc
4ccc
8b-
=95
8a
8aa
8b
8bb
=96
8cc
8ccc
8cc#
8ccc#
=97
8dd
8g
8f#
8g
=98
2cc
=99
8b-
8g
8f#
8g
=100
2ee-
=101
8dd
8ff#
8gg
8dd
=102
8cc
8gg#
8aa
8cc
=103
8b-
8gg
8a
8ee-
=104
8.g
32a
32g
8f#
8r
=105
16r
16dd
16bb-
16dd
16aa
16dd
16gg
16dd
=106
16ff#
16dd
16cc#
16dd
16ee
16ff#
16gg
16aa
=107
16bb-
16dd
16ddd
16dd
16ccc
16dd
16bb-
16dd
=108
16aa
16ff
16ee
16ff
16gg
16aa
16bb-
16ccc
=109
16ddd
16ff
16fff
16ff
16eee-
16ff
16ddd
16ff
=110
16ccc
16dd
16bb-
16dd
16aa
16cc
16gg
16b-
=111
16r
16a
16ee-
16dd
16cc
16b-
16a
16g
=112
16f#
16g
16a
16g#
16a
16b
16cc
16b
=113
8cc
8f#
8f#
8f#
=114
8.g
16b-
8dd
8dd
=115
8ccc
8ff#
8ff#
8ff#
=116
8.gg
16bb-
8ddd
8d
=117
8cc
8f#
8f#
8f#
=118
8.g
16a
16b
16g
16a
16b
=119
8.cc
16dd
16ee-
16ff
16gg
16ee-
=120
8dd
16ee-
16dd
16ff
16ee-
16dd
16cc
=121
8.b-
16cc
16dd
16cc
16b-
16a
=122
8.g
16a
16b
16g
16a
16b
=123
8.cc
16dd
16ee-
16ee
16ff
16ff#
=124
[4gg
8.gg]
16aa
=125
4bb-
4c#
=126
8d
4dd
16cc#
16dd
=127
16ee-
16dd
16cc
16b-
16a
16b-
16cc
16f#
=128
8g
4gg
16cc#
16dd
=129
16ee-
16dd
16cc
16b-
16a
16b-
16cc
16f#
=130
8g
8d
8d
8d
=131
2r
=132
2r
=133
2r
=134
2r
=135
2r
=136
2r
=137
2r
=138
2r
=139
2r
=140
2r
=141
2r
=142
2r
=143
4r
8r
==
*-
